app/dist/common/images/cms-energy.svg

<svg height="18" width="18" xmlns="http://www.w3.org/2000/svg"><path d="m0 0h18v18h-18z" fill="#f0f3fa"/><path d="m16 7h-2.592c-2.184 0-2.262 2.455-.801 2.455h1.244c.455 0 .424.545-.047.545h-3.067l.723-3h-1.226l-1.806 2.621.33-2.621h-1.194l-1.885 3h-1.776c-1.303 0-1.036-2 .535-2h2.026l.534-1h-2.45c-3.017 0-3.378 4-.959 4h2.702l1.399-2.364-.33 2.364h1.1l1.634-2.348-.551 2.348h4.072c1.933 0 1.995-2.424.519-2.424h-1.065c-.503 0-.377-.576.172-.576h2.288z" fill="#3893ce"/></svg>

<!-- by TradingView --><svg width="18" height="18" xmlns="http://www.w3.org/2000/svg"><path fill="#F0F3FA" d="M0 0h18v18H0z"/><path d="M16 7h-2.592c-2.184 0-2.262 2.455-.801 2.455h1.244c.455 0 .424.545-.047.545h-3.067l.723-3h-1.226L8.428 9.621 8.758 7H7.564l-1.885 3H3.903C2.6 10 2.867 8 4.438 8h2.026l.534-1h-2.45c-3.017 0-3.378 4-.959 4h2.702L7.69 8.636 7.36 11h1.1l1.634-2.348L9.543 11h4.072c1.933 0 1.995-2.424.519-2.424h-1.065c-.503 0-.377-.576.172-.576h2.288L16 7z" fill="#3893CE"/></svg>
